X:891
T:Bear Grass
S:Bruce & Emmett's Drummers and Fifers Guide (1862), p. 89
M:3/4
L:1/8
Q:1/4=180
K:D
%%MIDI program 72
%%MIDI transpose 8
%%MIDI ratio 3 1
af|df Ad FA|DFAdcB|Acegfe|dfA2af|df Ad FA|DFAdcB|
Acegfe|d2z2::ed|ceA2af|dfA2ed|ceA2af|dfA2af|
df Ad FA|DFAdcB|Acegfe|d2z2::[K:G](3(GFG)|A2zGFG|A2zd^cd|
e3a^ga|f2d2FG|A2zGFG|A2zd^cd|e3age|d2z2:|
